X:1
T: The Ferry
P:Adapted by Bruce Shawyer
R:Strathspey
Q: 128
K:D
M:4/4
L:1/16
|:d3A BAGF DA3 AB3|d3A BAGF Ee3 ef3|d3A BAGF AA3 f3e|dcBA d3F FE3 EA3|
d3A BAGF DA3 AB3|d3A BAGF Ee3 ef3|d3A BAGF AA3 f3e|dcBA d3F FE3 EA3|
d3e fedc d3A F3A|d3e fedc B4 Be3|d3e f3d e3f d3A|Bcdc BAGF FE3 EF3|
d3e fedc d3A F3A|d3e fedc B4 Be3|d3e f3d e3f d3A|Bcdc BAGF FD3 D4:|
